icon/cg/screen.svg

<svg viewBox="0 0 24 24" fill="none" xmlns="http://www.w3.org/2000/svg" height="1em" width="1em">
  <path fill-rule="evenodd" clip-rule="evenodd" d="M11 17H4C2.34315 17 1 15.6569 1 14V6C1 4.34315 2.34315 3 4 3H20C21.6569 3 23 4.34315 23 6V14C23 15.6569 21.6569 17 20 17H13V19H16C16.5523 19 17 19.4477 17 20C17 20.5523 16.5523 21 16 21H8C7.44772 21 7 20.5523 7 20C7 19.4477 7.44772 19 8 19H11V17ZM4 5H20C20.5523 5 21 5.44772 21 6V14C21 14.5523 20.5523 15 20 15H4C3.44772 15 3 14.5523 3 14V6C3 5.44772 3.44772 5 4 5Z" fill="currentColor"/>
</svg>

<svg width="24" height="24" fill="none" xmlns="http://www.w3.org/2000/svg"><path fill-rule="evenodd" clip-rule="evenodd" d="M11 17H4a3 3 0 0 1-3-3V6a3 3 0 0 1 3-3h16a3 3 0 0 1 3 3v8a3 3 0 0 1-3 3h-7v2h3a1 1 0 1 1 0 2H8a1 1 0 1 1 0-2h3v-2ZM4 5h16a1 1 0 0 1 1 1v8a1 1 0 0 1-1 1H4a1 1 0 0 1-1-1V6a1 1 0 0 1 1-1Z" fill="currentColor"/></svg>
